X:1
T: Skiver the Quilt
C:
R:Jig
Q:180
K:Em
M:6/8
L:1/16
|:Bd|e6 e2d2B2|d6 d2B2d2|e6 e2d2B2|d2B2A2 A2B2d2|
e6 e2d2B2|d2e2d2 d2e2f2|g6 e2g2e2|d2B2A2 A4:|
|:B2|G6 B2G2B2|g6 g2a2b2|G6 B2G2B2|d2B2A2 A4B2|
G2A2G2 B2G2B2|g4g2 g2a2b2|a2g2f2 e2g2e2|d2B2A2 A4:|
